Sources/FrostedUI/Resources/Icons.xcassets/medalCheckmark12.imageset/medal-checkmark-12.svg

<svg width="12" height="12" viewBox="0 0 12 12" fill="none" xmlns="http://www.w3.org/2000/svg" data-fui-icon="true">
  <path
    d="M7.10349 7.32853C7.29875 7.13327 7.29875 6.81668 7.10349 6.62142C6.90823 6.42616 6.59165 6.42616 6.39639 6.62142L5.69994 7.31787L5.60349 7.22142C5.40823 7.02616 5.09165 7.02616 4.89639 7.22142C4.70112 7.41668 4.70112 7.73327 4.89639 7.92853L5.34639 8.37853C5.54165 8.57379 5.85823 8.57379 6.05349 8.37853L7.10349 7.32853Z"
    fill="currentColor"
  />
  <path
    fill-rule="evenodd"
    clip-rule="evenodd"
    d="M2.12496 0.625C1.34347 0.625 0.526413 1.29507 0.705659 2.25857C0.940557 3.52122 1.64168 4.43641 2.25325 5.02128C2.54018 5.29567 2.81477 5.50466 3.02786 5.65066C2.69326 6.18726 2.49994 6.82105 2.49994 7.5C2.49994 9.433 4.06694 11 5.99994 11C7.93293 11 9.49994 9.433 9.49994 7.5C9.49994 6.82105 9.30661 6.18725 8.97201 5.65065C9.18511 5.50466 9.4597 5.29567 9.74662 5.02128C10.3582 4.43641 11.0593 3.52122 11.2942 2.25857C11.4735 1.29507 10.6564 0.625 9.87491 0.625H9.0243C8.03015 0.625 7.35076 1.41924 7.18982 2.22092C7.07688 2.78357 6.86992 3.24191 6.69113 3.55876C6.60215 3.71646 6.52153 3.83665 6.4657 3.91441C6.43784 3.9532 6.41634 3.98118 6.4033 3.99771L6.39041 4.01375L6.39138 4.01264L6.40378 4.02305C6.27128 4.00782 6.13652 4 5.99994 4C5.86336 4 5.7286 4.00782 5.5961 4.02305L5.60849 4.01264L5.60947 4.01375L5.59658 3.99771C5.58354 3.98118 5.56203 3.9532 5.53417 3.91441C5.47834 3.83665 5.39772 3.71646 5.30875 3.55876C5.12996 3.24191 4.923 2.78357 4.81005 2.22092C4.64912 1.41924 3.96973 0.625 2.97557 0.625H2.12496ZM7.90258 4.5544L7.89653 4.55791C7.88326 4.54934 7.86993 4.54085 7.85653 4.53246C7.90128 4.46135 7.94872 4.38238 7.99752 4.29589C8.2346 3.87571 8.50949 3.26831 8.66049 2.51614C8.68534 2.39234 8.74767 2.28514 8.82216 2.21509C8.89303 2.14845 8.9622 2.125 9.0243 2.125H9.79004C9.6073 2.90941 9.15464 3.51189 8.70991 3.9372C8.47638 4.16052 8.25327 4.32684 8.09063 4.43601C8.00968 4.49034 7.94481 4.52978 7.90258 4.5544ZM4.14334 4.53246C4.09859 4.46135 4.05116 4.38238 4.00236 4.29589C3.76527 3.87571 3.49038 3.26831 3.33939 2.51614C3.31454 2.39234 3.25221 2.28514 3.17772 2.21509C3.10685 2.14845 3.03768 2.125 2.97557 2.125H2.20983C2.39258 2.90941 2.84523 3.51189 3.28997 3.9372C3.52349 4.16052 3.74661 4.32684 3.90925 4.43601C3.99019 4.49034 4.05506 4.52978 4.0973 4.5544L4.10335 4.55791C4.11662 4.54934 4.12995 4.54085 4.14334 4.53246ZM7.99994 7.5C7.99994 8.60457 7.10451 9.5 5.99994 9.5C4.89537 9.5 3.99994 8.60457 3.99994 7.5C3.99994 6.39543 4.89537 5.5 5.99994 5.5C7.10451 5.5 7.99994 6.39543 7.99994 7.5Z"
    fill="currentColor"
  />
</svg>

<svg xmlns="http://www.w3.org/2000/svg" width="12" height="12" fill="none" data-fui-icon="true" viewBox="0 0 12 12"><path fill="currentColor" d="M7.103 7.329a.5.5 0 0 0-.707-.708l-.696.697-.097-.097a.5.5 0 1 0-.707.708l.45.45a.5.5 0 0 0 .707 0z"/><path fill="currentColor" fill-rule="evenodd" d="M2.125.625c-.782 0-1.599.67-1.42 1.634.236 1.262.937 2.177 1.548 2.762.287.275.562.484.775.63a3.5 3.5 0 1 0 5.944 0c.213-.146.488-.355.775-.63.611-.585 1.312-1.5 1.547-2.762.18-.964-.638-1.634-1.42-1.634h-.85c-.994 0-1.673.794-1.834 1.596a4.6 4.6 0 0 1-.724 1.693q-.043.06-.063.084l-.013.016.001-.001.013.01a3.5 3.5 0 0 0-.808 0l.012-.01h.001l-.012-.015-.063-.084a4.579 4.579 0 0 1-.724-1.693C4.65 1.419 3.97.625 2.976.625zm5.778 3.93-.006.003-.04-.026q.067-.106.14-.236a6.1 6.1 0 0 0 .663-1.78.57.57 0 0 1 .162-.3c.071-.068.14-.091.202-.091h.766c-.183.784-.635 1.387-1.08 1.812a4.7 4.7 0 0 1-.807.617m-3.76-.023a6.079 6.079 0 0 1-.804-2.016.57.57 0 0 0-.161-.3.3.3 0 0 0-.202-.091H2.21c.183.784.635 1.387 1.08 1.812a4.7 4.7 0 0 0 .807.617l.006.004zM8 7.5a2 2 0 1 1-4 0 2 2 0 0 1 4 0" clip-rule="evenodd"/></svg>
